X: 11
T: Five Mile Chase, The
Z: Thady Quill
S: https://thesession.org/tunes/458#setting52678
R: reel
M: 4/4
L: 1/8
K: Gmaj
DE/F/|:G2BG FGAG|FADA FADF|G2BG FGAd|1 (3efg fa gedB :|2 (3efg fa g3||
~g3f edBd | ~g3f gaba | ~g3f edBd | (3efg fa g3a |
(3bag bf gfed |d3A BABd | e3f edBd | (3efg af gedB ||

